svg/600/outlined/remove_road-fill.svg

<svg xmlns="http://www.w3.org/2000/svg" width="48" height="48" viewBox="0 -960 960 960"><path d="M726.999-429.391v-383.61h79.219v383.61h-79.219ZM120.998-146.999v-666.002h79.784v666.002h-79.784ZM423.999-653v-160.001h79.783V-653h-79.783Zm0 252.218v-159.436h79.783v159.436h-79.783Zm0 253.783V-308h79.783v161.001h-79.783Zm210.957 18.173 77.217-77.217-78.217-78.217 56.566-56.566 77.717 77.652 77.152-77.652 57.131 56.566-77.217 77.717 77.217 77.152-57.131 57.13-76.652-78.216-78.217 78.217-55.566-56.566Z"/></svg>

<svg xmlns="http://www.w3.org/2000/svg" width="48" height="48" viewBox="0 -960 960 960"><path d="M727-429.39V-813h79.22v383.61H727ZM121-147v-666h79.78v666H121Zm303-506v-160h79.78v160H424Zm0 252.22v-159.44h79.78v159.44H424ZM424-147v-161h79.78v161H424Zm210.96 18.17 77.21-77.21-78.21-78.22 56.56-56.57 77.72 77.66 77.15-77.66 57.13 56.57-77.22 77.72 77.22 77.15-57.13 57.13-76.65-78.22-78.22 78.22-55.56-56.57Z"/></svg>
